app/assets/images/logo.svg

<?xml version="1.0" encoding="UTF-8" standalone="no"?>
<svg width="217px" height="50px" viewBox="0 0 217 50" version="1.1" xmlns="http://www.w3.org/2000/svg" xmlns:xlink="http://www.w3.org/1999/xlink" xmlns:sketch="http://www.bohemiancoding.com/sketch/ns">
    <!-- Generator: Sketch 3.2.2 (9983) - http://www.bohemiancoding.com/sketch -->
    <title>Rectangle-36 + HOUND-9</title>
    <desc>Created with Sketch.</desc>
    <defs></defs>
    <g id="Page-1" stroke="none" stroke-width="1" fill="none" fill-rule="evenodd" sketch:type="MSPage">
        <g id="HoundLogo" sketch:type="MSLayerGroup" fill="#A873D1">
            <g id="Page-1" sketch:type="MSShapeGroup">
                <g id="HoundLogo">
                    <g id="Rectangle-36-+-HOUND-9">
                        <path d="M38.6578615,48.6361958 L1.55982196,48.6361958 C0.86243435,48.6361958 0.296574406,48.0722193 0.296574406,47.3765193 L0.296574406,1.87813265 C0.296574406,1.18271651 0.862149596,0.618456261 1.55982196,0.618456261 L47.1871944,0.618456261 C47.8845818,0.618456261 48.450442,1.18243261 48.450442,1.87813265 L48.450442,21.654273 C48.2674769,21.0898818 46.1245071,14.6327472 42.8130761,11.3534086 C39.3485148,7.92242399 33.0664843,5.11503466 34.0006554,7.37151584 C34.9348266,9.62799702 34.9348263,15.5058174 34.9348263,15.5058174 L25.5288096,19.154857 L24.1179852,24.4623555 L12.6064279,27.5493393 C12.6064279,27.5493393 13.4267623,33.5213631 16.735586,34.5651089 C18.857955,35.2345957 32.769504,36.7955286 32.769504,36.7955286 L30.1285283,48.6361958 L38.6578615,48.6361958 L38.6578615,48.6361958 Z" id="Rectangle-36"></path>
                        <path d="M66.0590136,0.483129874 L73.0215534,0.483129874 L73.0215534,21.2436341 L81.6223379,21.2436341 L81.6223379,0.483129874 L88.5848777,0.483129874 L88.5848777,48.9469954 L81.6223379,48.9469954 L81.6223379,27.3696845 L73.0215534,27.3696845 L73.0215534,48.9469954 L66.0590136,48.9469954 L66.0590136,0.483129874 L66.0590136,0.483129874 Z M97.4123534,11.918424 C97.4123534,9.9671537 97.753651,8.24280122 98.4362563,6.74531475 C99.1188616,5.24782824 100.017612,4.01128601 101.132534,3.03565088 C102.247456,2.06001571 103.49888,1.32262815 104.886845,0.823466008 C106.274809,0.324303824 107.674129,0.0747265126 109.084847,0.0747265126 C110.495564,0.0747265126 111.894884,0.324303824 113.282849,0.823466008 C114.670813,1.32262815 115.922237,2.06001571 117.037159,3.03565088 C118.152081,4.01128601 119.050832,5.24782824 119.733437,6.74531475 C120.416042,8.24280122 120.75734,9.9671537 120.75734,11.918424 L120.75734,37.5117013 C120.75734,39.50835 120.416042,41.2440471 119.733437,42.7188441 C119.050832,44.1936416 118.152081,45.4188391 117.037159,46.3944744 C115.922237,47.3701097 114.670813,48.1074971 113.282849,48.6066592 C111.894884,49.1058214 110.495564,49.3553987 109.084847,49.3553987 C107.674129,49.3553987 106.274809,49.1058214 104.886845,48.6066592 C103.49888,48.1074971 102.247456,47.3701097 101.132534,46.3944744 C100.017612,45.4188391 99.1188616,44.1936416 98.4362563,42.7188441 C97.753651,41.2440471 97.4123534,39.50835 97.4123534,37.5117013 L97.4123534,11.918424 L97.4123534,11.918424 Z M104.374893,37.5117013 C104.374893,39.1907013 104.841333,40.4272437 105.774227,41.2213651 C106.707121,42.015487 107.81065,42.4125416 109.084847,42.4125416 C110.359043,42.4125416 111.462572,42.015487 112.395466,41.2213651 C113.32836,40.4272437 113.7948,39.1907013 113.7948,37.5117013 L113.7948,11.918424 C113.7948,10.239424 113.32836,9.00288172 112.395466,8.20876013 C111.462572,7.41463849 110.359043,7.01758366 109.084847,7.01758366 C107.81065,7.01758366 106.707121,7.41463849 105.774227,8.20876013 C104.841333,9.00288172 104.374893,10.239424 104.374893,11.918424 L104.374893,37.5117013 L104.374893,37.5117013 Z M152.11068,38.0562391 C152.11068,39.6444824 151.814888,41.1192576 151.223297,42.4806088 C150.631706,43.8419601 149.823968,45.0331248 148.80006,46.0541382 C147.776152,47.0751517 146.581611,47.8806059 145.2164,48.4705248 C143.851189,49.0604437 142.394986,49.3553987 140.847748,49.3553987 C139.300508,49.3553987 137.844306,49.0604437 136.479095,48.4705248 C135.113885,47.8806059 133.919343,47.0751517 132.895435,46.0541382 C131.871527,45.0331248 131.063789,43.8419601 130.472198,42.4806088 C129.880607,41.1192576 129.584816,39.6444824 129.584816,38.0562391 L129.584816,0.483129874 L136.547355,0.483129874 L136.547355,37.3755668 C136.547355,39.0999454 136.956912,40.3705206 137.776039,41.1873315 C138.595165,42.0041424 139.619058,42.4125416 140.847748,42.4125416 C142.076437,42.4125416 143.10033,42.0041424 143.919456,41.1873315 C144.738582,40.3705206 145.14814,39.0999454 145.14814,37.3755668 L145.14814,0.483129874 L152.11068,0.483129874 L152.11068,38.0562391 L152.11068,38.0562391 Z M161.074676,0.483129874 L167.764175,0.483129874 L178.276245,29.6839702 L178.412765,29.6839702 L178.412765,0.483129874 L185.375305,0.483129874 L185.375305,48.9469954 L178.822326,48.9469954 L168.173736,19.8142223 L168.037216,19.8142223 L168.037216,48.9469954 L161.074676,48.9469954 L161.074676,0.483129874 L161.074676,0.483129874 Z M194.339301,0.483129874 L204.64659,0.483129874 C208.605701,0.483129874 211.631873,1.58353903 213.725196,3.78439038 C215.818519,5.98524168 216.865165,9.05958071 216.865165,13.0074996 L216.865165,35.6738862 C216.865165,40.2117239 215.761636,43.558329 213.554546,45.7138021 C211.347455,47.8692752 208.173388,48.9469954 204.032249,48.9469954 L194.339301,48.9469954 L194.339301,0.483129874 L194.339301,0.483129874 Z M201.301841,42.4125416 L204.51007,42.4125416 C206.466872,42.4125416 207.854815,41.9247315 208.673942,40.9490962 C209.493068,39.9734609 209.902625,38.4419639 209.902625,36.3545584 L209.902625,13.0074996 C209.902625,11.1016077 209.515821,9.62683256 208.742202,8.58312987 C207.968582,7.53942714 206.557886,7.01758366 204.51007,7.01758366 L201.301841,7.01758366 L201.301841,42.4125416 L201.301841,42.4125416 Z" id="HOUND-9"></path>
                    </g>
                </g>
            </g>
        </g>
    </g>
</svg>

<svg width="217" height="50" viewBox="0 0 217 50" xmlns="http://www.w3.org/2000/svg"><title>Hound logo</title><g fill="#A873D1" fill-rule="evenodd"><path d="M38.658 48.636H1.56c-.698 0-1.263-.564-1.263-1.26V1.88c0-.695.565-1.26 1.263-1.26h45.627c.698 0 1.263.564 1.263 1.26v19.776c-.183-.564-2.325-7.02-5.637-10.3C39.35 7.92 33.066 5.113 34 7.37c.935 2.256.935 8.134.935 8.134l-9.406 3.65-1.412 5.306-11.512 3.087s.82 5.97 4.13 7.015c2.122.67 16.034 2.23 16.034 2.23l-2.64 11.84h8.528zM66.06.483h6.962v20.76h8.6V.484h6.963v48.464h-6.963V27.37h-8.6v21.577H66.06V.483zM97.41 11.918c0-1.95.342-3.675 1.024-5.173.683-1.497 1.582-2.734 2.697-3.71 1.114-.975 2.366-1.712 3.754-2.212 1.388-.5 2.787-.748 4.198-.748 1.41 0 2.81.25 4.198.748 1.388.5 2.64 1.237 3.754 2.213 1.115.975 2.014 2.212 2.696 3.71.683 1.497 1.024 3.22 1.024 5.172v25.594c0 1.996-.34 3.732-1.024 5.207-.682 1.474-1.58 2.7-2.696 3.674-1.115.976-2.366 1.713-3.754 2.213s-2.787.748-4.198.748c-1.41 0-2.81-.25-4.198-.748-1.388-.5-2.64-1.237-3.754-2.213-1.115-.975-2.014-2.2-2.697-3.675-.682-1.476-1.024-3.212-1.024-5.208V11.918zm6.963 25.594c0 1.68.466 2.915 1.4 3.71.932.793 2.036 1.19 3.31 1.19s2.378-.397 3.31-1.19c.933-.795 1.4-2.03 1.4-3.71V11.918c0-1.68-.467-2.915-1.4-3.71-.932-.793-2.036-1.19-3.31-1.19s-2.378.397-3.31 1.19c-.934.795-1.4 2.03-1.4 3.71v25.594zm47.736.544c0 1.588-.295 3.063-.887 4.425-.59 1.362-1.4 2.553-2.423 3.574-1.024 1.02-2.218 1.827-3.584 2.417-1.365.59-2.82.885-4.368.885-1.547 0-3.004-.295-4.37-.884-1.364-.59-2.56-1.395-3.583-2.416-1.023-1.02-1.83-2.212-2.423-3.573-.59-1.36-.887-2.836-.887-4.424V.483h6.962v36.893c0 1.724.41 2.995 1.23 3.81.818.818 1.842 1.227 3.07 1.227 1.23 0 2.253-.41 3.072-1.226.82-.816 1.228-2.087 1.228-3.81V.482h6.963v37.573zM161.076.483h6.69l10.51 29.2h.138V.484h6.962v48.464h-6.553l-10.648-29.133h-.137v29.133h-6.962V.483zm33.264 0h10.307c3.96 0 6.985 1.1 9.078 3.3 2.094 2.202 3.14 5.277 3.14 9.224v22.667c0 4.538-1.103 7.884-3.31 10.04-2.208 2.155-5.382 3.233-9.523 3.233h-9.693V.483zm6.962 41.93h3.208c1.957 0 3.345-.488 4.164-1.464.82-.977 1.23-2.508 1.23-4.595V13.007c0-1.905-.388-3.38-1.162-4.424-.773-1.044-2.184-1.565-4.232-1.565h-3.208v35.395z"/></g></svg>
